local/share/icons/dracula-icons-main/16/actions/minuet-rhythms.svg

<?xml version="1.0" encoding="UTF-8"?>
<svg xmlns="http://www.w3.org/2000/svg" xmlns:xlink="http://www.w3.org/1999/xlink" width="16" height="16" viewBox="0 0 16 16">
<path fill-rule="nonzero" fill="rgb(100%, 100%, 100%)" fill-opacity="1" d="M 5 2 L 5 9 L 6 9 L 6 4 L 13 4 L 13 9 L 14 9 L 14 2 Z M 2.085938 9.300781 L 1.378906 10.007812 L 2.792969 11.421875 L 1.378906 12.835938 L 2.085938 13.542969 L 3.5 12.128906 L 4.914062 13.542969 L 5.621094 12.835938 L 4.207031 11.421875 L 5.621094 10.007812 L 4.914062 9.300781 L 3.5 10.714844 Z M 10.085938 9.300781 L 9.378906 10.007812 L 10.792969 11.421875 L 9.378906 12.835938 L 10.085938 13.542969 L 11.5 12.128906 L 12.914062 13.542969 L 13.621094 12.835938 L 12.207031 11.421875 L 13.621094 10.007812 L 12.914062 9.300781 L 11.5 10.714844 Z M 10.085938 9.300781 "/>
</svg>

<?xml version="1.0" encoding="UTF-8" standalone="no"?>
<!-- Created with Inkscape (http://www.inkscape.org/) -->
<svg id="svg3699" xmlns:rdf="http://www.w3.org/1999/02/22-rdf-syntax-ns#" xmlns="http://www.w3.org/2000/svg" height="16" viewBox="0 0 16 16" width="16" version="1.1" xmlns:cc="http://creativecommons.org/ns#" xmlns:dc="http://purl.org/dc/elements/1.1/">
 <defs id="defs4339">
  <style id="current-color-scheme" type="text/css">.ColorScheme-Text {
        color:#FFFFFF;
      }</style>
 </defs>
 <metadata id="metadata3704">
  <rdf:RDF>
   <cc:Work rdf:about="">
    <dc:format>image/svg+xml</dc:format>
    <dc:type rdf:resource="http://purl.org/dc/dcmitype/StillImage"/>
    <dc:title/>
   </cc:Work>
  </rdf:RDF>
 </metadata>
 <g id="layer1" transform="translate(0 -1036.4)">
  <path id="path4303" class="ColorScheme-Text" style="fill:currentColor" d="m5 2v2 5h1v-5h7v5h1v-5-2h-9zm-2.9141 7.3008l-0.707 0.7072 1.4141 1.414-1.4141 1.414 0.707 0.707 1.4141-1.414 1.4141 1.414 0.707-0.707-1.4141-1.414 1.4141-1.414-0.707-0.7072-1.4141 1.4142-1.4141-1.4142zm8.0001 0l-0.7071 0.7072 1.4141 1.414-1.4141 1.414 0.7071 0.707 1.414-1.414 1.414 1.414 0.707-0.707-1.414-1.414 1.414-1.414-0.707-0.7072-1.414 1.4142-1.414-1.4142z" transform="translate(0,1036.4)"/>
 </g>
</svg>
